contributed-vectors/sausage_man.svg

<svg width="192" height="192" viewBox="0 0 192 192" fill="none" xmlns="http://www.w3.org/2000/svg">
<g filter="url(#filter0_i_1031:1093)">
<ellipse cx="43.5" cy="99.5" rx="20.5" ry="30.5" fill="#D8D8D8"/>
</g>
<path d="M61.5 99.5C61.5 107.493 59.3178 114.618 55.9208 119.672C52.5133 124.742 48.0745 127.5 43.5 127.5C38.9255 127.5 34.4867 124.742 31.0792 119.672C27.6822 114.618 25.5 107.493 25.5 99.5C25.5 91.5065 27.6822 84.382 31.0792 79.3278C34.4867 74.2581 38.9255 71.5 43.5 71.5C48.0745 71.5 52.5133 74.2581 55.9208 79.3278C59.3178 84.382 61.5 91.5065 61.5 99.5Z" stroke="#4A4A4A" stroke-width="5"/>
<g filter="url(#filter1_i_1031:1093)">
<path d="M84.5 12.5L90.5 37L123 45.5L141 21.5L123 16L112.5 6L94.5 14.5L84.5 12.5Z" fill="#FCECDC"/>
</g>
<path d="M121.276 17.8103L121.704 18.2181L122.269 18.3909L136.863 22.8499L122.008 42.6564L92.5739 34.9583L87.863 15.7221L94.0097 16.9515L94.8202 17.1135L95.5675 16.7606L112.017 8.99267L121.276 17.8103Z" stroke="#4A4A4A" stroke-width="5"/>
<g filter="url(#filter2_i_1031:1093)">
<path d="M41 87C41 56.6243 65.6243 32 96 32C126.376 32 151 56.6243 151 87V176C151 181.523 146.523 186 141 186H51C45.4771 186 41 181.523 41 176V87Z" fill="#FCECDC"/>
</g>
<path d="M43.5 87C43.5 58.0051 67.0051 34.5 96 34.5C124.995 34.5 148.5 58.0051 148.5 87V176C148.5 180.142 145.142 183.5 141 183.5H51C46.8579 183.5 43.5 180.142 43.5 176V87Z" stroke="#4A4A4A" stroke-width="5"/>
<ellipse cx="70.5" cy="101.5" rx="6.5" ry="10.5" fill="#4A4A4A"/>
<ellipse cx="108.5" cy="101.5" rx="6.5" ry="10.5" fill="#4A4A4A"/>
<path d="M109.255 135C106.128 138.832 99.1307 141.5 90.9999 141.5C82.8692 141.5 75.8717 138.832 72.7446 135" stroke="#4A4A4A" stroke-width="5" stroke-linecap="round"/>
<g filter="url(#filter3_i_1031:1093)">
<ellipse cx="153.5" cy="99.5" rx="20.5" ry="30.5" fill="#D8D8D8"/>
</g>
<path d="M171.5 99.5C171.5 107.493 169.318 114.618 165.921 119.672C162.513 124.742 158.074 127.5 153.5 127.5C148.925 127.5 144.487 124.742 141.079 119.672C137.682 114.618 135.5 107.493 135.5 99.5C135.5 91.5065 137.682 84.382 141.079 79.3278C144.487 74.2581 148.925 71.5 153.5 71.5C158.074 71.5 162.513 74.2581 165.921 79.3278C169.318 84.382 171.5 91.5065 171.5 99.5Z" stroke="#4A4A4A" stroke-width="5"/>
<g filter="url(#filter4_i_1031:1093)">
<path d="M142 116.5L149 118C149 118 146.866 136.022 139 143C132.21 149.024 117 150.5 117 150.5L115 146.5C115 146.5 126.612 143.48 132 138.5C138.931 132.095 142 116.5 142 116.5Z" fill="#D8D8D8"/>
</g>
<path d="M142 116.5L149 118C149 118 146.866 136.022 139 143C132.21 149.024 117 150.5 117 150.5L115 146.5C115 146.5 126.612 143.48 132 138.5C138.931 132.095 142 116.5 142 116.5Z" stroke="#4A4A4A" stroke-width="5"/>
<g filter="url(#filter5_i_1031:1093)">
<ellipse cx="109.5" cy="151" rx="7.5" ry="6" transform="rotate(-18.7459 109.5 151)" fill="#D8D8D8"/>
</g>
<ellipse cx="109.5" cy="151" rx="7.5" ry="6" transform="rotate(-18.7459 109.5 151)" stroke="#4A4A4A" stroke-width="5"/>
<defs>
<filter id="filter0_i_1031:1093" x="23" y="69" width="41" height="61" filterUnits="userSpaceOnUse" color-interpolation-filters="sRGB">
<feFlood flood-opacity="0" result="BackgroundImageFix"/>
<feBlend mode="normal" in="SourceGraphic" in2="BackgroundImageFix" result="shape"/>
<feColorMatrix in="SourceAlpha" type="matrix" values="0 0 0 0 0 0 0 0 0 0 0 0 0 0 0 0 0 0 127 0" result="hardAlpha"/>
<feOffset dx="-25" dy="-4"/>
<feComposite in2="hardAlpha" operator="arithmetic" k2="-1" k3="1"/>
<feColorMatrix type="matrix" values="0 0 0 0 0.592 0 0 0 0 0.592 0 0 0 0 0.592 0 0 0 1 0"/>
<feBlend mode="normal" in2="shape" result="effect1_innerShadow_1031:1093"/>
</filter>
<filter id="filter1_i_1031:1093" x="84.5" y="6" width="56.5" height="39.5" filterUnits="userSpaceOnUse" color-interpolation-filters="sRGB">
<feFlood flood-opacity="0" result="BackgroundImageFix"/>
<feBlend mode="normal" in="SourceGraphic" in2="BackgroundImageFix" result="shape"/>
<feColorMatrix in="SourceAlpha" type="matrix" values="0 0 0 0 0 0 0 0 0 0 0 0 0 0 0 0 0 0 127 0" result="hardAlpha"/>
<feOffset dx="13"/>
<feComposite in2="hardAlpha" operator="arithmetic" k2="-1" k3="1"/>
<feColorMatrix type="matrix" values="0 0 0 0 0.831373 0 0 0 0 0.717647 0 0 0 0 0.603922 0 0 0 1 0"/>
<feBlend mode="normal" in2="shape" result="effect1_innerShadow_1031:1093"/>
</filter>
<filter id="filter2_i_1031:1093" x="41" y="32" width="110" height="154" filterUnits="userSpaceOnUse" color-interpolation-filters="sRGB">
<feFlood flood-opacity="0" result="BackgroundImageFix"/>
<feBlend mode="normal" in="SourceGraphic" in2="BackgroundImageFix" result="shape"/>
<feColorMatrix in="SourceAlpha" type="matrix" values="0 0 0 0 0 0 0 0 0 0 0 0 0 0 0 0 0 0 127 0" result="hardAlpha"/>
<feOffset dx="13"/>
<feComposite in2="hardAlpha" operator="arithmetic" k2="-1" k3="1"/>
<feColorMatrix type="matrix" values="0 0 0 0 0.831373 0 0 0 0 0.717647 0 0 0 0 0.603922 0 0 0 1 0"/>
<feBlend mode="normal" in2="shape" result="effect1_innerShadow_1031:1093"/>
</filter>
<filter id="filter3_i_1031:1093" x="133" y="69" width="41" height="61" filterUnits="userSpaceOnUse" color-interpolation-filters="sRGB">
<feFlood flood-opacity="0" result="BackgroundImageFix"/>
<feBlend mode="normal" in="SourceGraphic" in2="BackgroundImageFix" result="shape"/>
<feColorMatrix in="SourceAlpha" type="matrix" values="0 0 0 0 0 0 0 0 0 0 0 0 0 0 0 0 0 0 127 0" result="hardAlpha"/>
<feOffset dx="13"/>
<feComposite in2="hardAlpha" operator="arithmetic" k2="-1" k3="1"/>
<feColorMatrix type="matrix" values="0 0 0 0 0.592 0 0 0 0 0.592 0 0 0 0 0.592 0 0 0 1 0"/>
<feBlend mode="normal" in2="shape" result="effect1_innerShadow_1031:1093"/>
</filter>
<filter id="filter4_i_1031:1093" x="111.384" y="113.523" width="40.3669" height="39.6309" filterUnits="userSpaceOnUse" color-interpolation-filters="sRGB">
<feFlood flood-opacity="0" result="BackgroundImageFix"/>
<feBlend mode="normal" in="SourceGraphic" in2="BackgroundImageFix" result="shape"/>
<feColorMatrix in="SourceAlpha" type="matrix" values="0 0 0 0 0 0 0 0 0 0 0 0 0 0 0 0 0 0 127 0" result="hardAlpha"/>
<feOffset dx="13"/>
<feComposite in2="hardAlpha" operator="arithmetic" k2="-1" k3="1"/>
<feColorMatrix type="matrix" values="0 0 0 0 0.592 0 0 0 0 0.592 0 0 0 0 0.592 0 0 0 1 0"/>
<feBlend mode="normal" in2="shape" result="effect1_innerShadow_1031:1093"/>
</filter>
<filter id="filter5_i_1031:1093" x="99.624" y="142.342" width="19.7522" height="17.3164" filterUnits="userSpaceOnUse" color-interpolation-filters="sRGB">
<feFlood flood-opacity="0" result="BackgroundImageFix"/>
<feBlend mode="normal" in="SourceGraphic" in2="BackgroundImageFix" result="shape"/>
<feColorMatrix in="SourceAlpha" type="matrix" values="0 0 0 0 0 0 0 0 0 0 0 0 0 0 0 0 0 0 127 0" result="hardAlpha"/>
<feOffset dx="13"/>
<feComposite in2="hardAlpha" operator="arithmetic" k2="-1" k3="1"/>
<feColorMatrix type="matrix" values="0 0 0 0 0.592 0 0 0 0 0.592 0 0 0 0 0.592 0 0 0 1 0"/>
<feBlend mode="normal" in2="shape" result="effect1_innerShadow_1031:1093"/>
</filter>
</defs>
</svg>

<svg xmlns="http://www.w3.org/2000/svg" width="192" height="192" fill="none"><g filter="url(#a)"><ellipse cx="43.5" cy="99.5" fill="#D8D8D8" rx="20.5" ry="30.5"/></g><path stroke="#4A4A4A" stroke-width="5" d="M61.5 99.5c0 7.993-2.182 15.118-5.58 20.172-3.407 5.07-7.846 7.828-12.42 7.828-4.575 0-9.013-2.758-12.42-7.828-3.398-5.054-5.58-12.179-5.58-20.172s2.182-15.118 5.58-20.172c3.407-5.07 7.846-7.828 12.42-7.828 4.575 0 9.013 2.758 12.42 7.828 3.398 5.054 5.58 12.178 5.58 20.172Z"/><g filter="url(#b)"><path fill="#FCECDC" d="m84.5 12.5 6 24.5 32.5 8.5 18-24-18-5.5-10.5-10-18 8.5-10-2Z"/></g><path stroke="#4A4A4A" stroke-width="5" d="m121.276 17.81.428.408.565.173 14.594 4.459-14.855 19.806-29.434-7.698-4.711-19.236 6.147 1.23.81.161.748-.352 16.449-7.768 9.259 8.817Z"/><g filter="url(#c)"><path fill="#FCECDC" d="M41 87c0-30.376 24.624-55 55-55s55 24.624 55 55v89c0 5.523-4.477 10-10 10H51c-5.523 0-10-4.477-10-10V87Z"/></g><path stroke="#4A4A4A" stroke-width="5" d="M43.5 87c0-28.995 23.505-52.5 52.5-52.5s52.5 23.505 52.5 52.5v89a7.5 7.5 0 0 1-7.5 7.5H51a7.5 7.5 0 0 1-7.5-7.5V87Z"/><ellipse cx="70.5" cy="101.5" fill="#4A4A4A" rx="6.5" ry="10.5"/><ellipse cx="108.5" cy="101.5" fill="#4A4A4A" rx="6.5" ry="10.5"/><path stroke="#4A4A4A" stroke-linecap="round" stroke-width="5" d="M109.255 135c-3.127 3.832-10.124 6.5-18.255 6.5-8.13 0-15.128-2.668-18.255-6.5"/><g filter="url(#d)"><ellipse cx="153.5" cy="99.5" fill="#D8D8D8" rx="20.5" ry="30.5"/></g><path stroke="#4A4A4A" stroke-width="5" d="M171.5 99.5c0 7.993-2.182 15.118-5.579 20.172-3.408 5.07-7.847 7.828-12.421 7.828-4.575 0-9.013-2.758-12.421-7.828-3.397-5.054-5.579-12.179-5.579-20.172s2.182-15.118 5.579-20.172c3.408-5.07 7.846-7.828 12.421-7.828 4.574 0 9.013 2.758 12.421 7.828 3.397 5.054 5.579 12.178 5.579 20.172Z"/><g filter="url(#e)"><path fill="#D8D8D8" d="m142 116.5 7 1.5s-2.134 18.022-10 25c-6.79 6.024-22 7.5-22 7.5l-2-4s11.612-3.02 17-8c6.931-6.405 10-22 10-22Z"/></g><path stroke="#4A4A4A" stroke-width="5" d="m142 116.5 7 1.5s-2.134 18.022-10 25c-6.79 6.024-22 7.5-22 7.5l-2-4s11.612-3.02 17-8c6.931-6.405 10-22 10-22Z"/><g filter="url(#f)"><ellipse cx="109.5" cy="151" fill="#D8D8D8" rx="7.5" ry="6" transform="rotate(-18.746 109.5 151)"/></g><ellipse cx="109.5" cy="151" stroke="#4A4A4A" stroke-width="5" rx="7.5" ry="6" transform="rotate(-18.746 109.5 151)"/><defs><filter id="a" width="41" height="61" x="23" y="69" color-interpolation-filters="sRGB" filterUnits="userSpaceOnUse"><feFlood flood-opacity="0" result="BackgroundImageFix"/><feBlend in="SourceGraphic" in2="BackgroundImageFix" result="shape"/><feColorMatrix in="SourceAlpha" result="hardAlpha" values="0 0 0 0 0 0 0 0 0 0 0 0 0 0 0 0 0 0 127 0"/><feOffset dx="-25" dy="-4"/><feComposite in2="hardAlpha" k2="-1" k3="1" operator="arithmetic"/><feColorMatrix values="0 0 0 0 0.592 0 0 0 0 0.592 0 0 0 0 0.592 0 0 0 1 0"/><feBlend in2="shape" result="effect1_innerShadow_1031:1093"/></filter><filter id="b" width="56.5" height="39.5" x="84.5" y="6" color-interpolation-filters="sRGB" filterUnits="userSpaceOnUse"><feFlood flood-opacity="0" result="BackgroundImageFix"/><feBlend in="SourceGraphic" in2="BackgroundImageFix" result="shape"/><feColorMatrix in="SourceAlpha" result="hardAlpha" values="0 0 0 0 0 0 0 0 0 0 0 0 0 0 0 0 0 0 127 0"/><feOffset dx="13"/><feComposite in2="hardAlpha" k2="-1" k3="1" operator="arithmetic"/><feColorMatrix values="0 0 0 0 0.831373 0 0 0 0 0.717647 0 0 0 0 0.603922 0 0 0 1 0"/><feBlend in2="shape" result="effect1_innerShadow_1031:1093"/></filter><filter id="c" width="110" height="154" x="41" y="32" color-interpolation-filters="sRGB" filterUnits="userSpaceOnUse"><feFlood flood-opacity="0" result="BackgroundImageFix"/><feBlend in="SourceGraphic" in2="BackgroundImageFix" result="shape"/><feColorMatrix in="SourceAlpha" result="hardAlpha" values="0 0 0 0 0 0 0 0 0 0 0 0 0 0 0 0 0 0 127 0"/><feOffset dx="13"/><feComposite in2="hardAlpha" k2="-1" k3="1" operator="arithmetic"/><feColorMatrix values="0 0 0 0 0.831373 0 0 0 0 0.717647 0 0 0 0 0.603922 0 0 0 1 0"/><feBlend in2="shape" result="effect1_innerShadow_1031:1093"/></filter><filter id="d" width="41" height="61" x="133" y="69" color-interpolation-filters="sRGB" filterUnits="userSpaceOnUse"><feFlood flood-opacity="0" result="BackgroundImageFix"/><feBlend in="SourceGraphic" in2="BackgroundImageFix" result="shape"/><feColorMatrix in="SourceAlpha" result="hardAlpha" values="0 0 0 0 0 0 0 0 0 0 0 0 0 0 0 0 0 0 127 0"/><feOffset dx="13"/><feComposite in2="hardAlpha" k2="-1" k3="1" operator="arithmetic"/><feColorMatrix values="0 0 0 0 0.592 0 0 0 0 0.592 0 0 0 0 0.592 0 0 0 1 0"/><feBlend in2="shape" result="effect1_innerShadow_1031:1093"/></filter><filter id="e" width="40.367" height="39.631" x="111.384" y="113.523" color-interpolation-filters="sRGB" filterUnits="userSpaceOnUse"><feFlood flood-opacity="0" result="BackgroundImageFix"/><feBlend in="SourceGraphic" in2="BackgroundImageFix" result="shape"/><feColorMatrix in="SourceAlpha" result="hardAlpha" values="0 0 0 0 0 0 0 0 0 0 0 0 0 0 0 0 0 0 127 0"/><feOffset dx="13"/><feComposite in2="hardAlpha" k2="-1" k3="1" operator="arithmetic"/><feColorMatrix values="0 0 0 0 0.592 0 0 0 0 0.592 0 0 0 0 0.592 0 0 0 1 0"/><feBlend in2="shape" result="effect1_innerShadow_1031:1093"/></filter><filter id="f" width="19.752" height="17.316" x="99.624" y="142.342" color-interpolation-filters="sRGB" filterUnits="userSpaceOnUse"><feFlood flood-opacity="0" result="BackgroundImageFix"/><feBlend in="SourceGraphic" in2="BackgroundImageFix" result="shape"/><feColorMatrix in="SourceAlpha" result="hardAlpha" values="0 0 0 0 0 0 0 0 0 0 0 0 0 0 0 0 0 0 127 0"/><feOffset dx="13"/><feComposite in2="hardAlpha" k2="-1" k3="1" operator="arithmetic"/><feColorMatrix values="0 0 0 0 0.592 0 0 0 0 0.592 0 0 0 0 0.592 0 0 0 1 0"/><feBlend in2="shape" result="effect1_innerShadow_1031:1093"/></filter></defs></svg>
